journy/img/media/cool-hunting.svg

<svg fill="none" height="28" viewBox="0 0 75 28" width="75" xmlns="http://www.w3.org/2000/svg"><g clip-rule="evenodd" fill="#122842" fill-rule="evenodd"><path d="m27.6678 8.05339c.3534 1.63296 1.5196 2.79381 3.2351 2.79041 1.3815-.0033 2.3257-.6806 2.7918-1.93067.5586-1.49816.5539-3.054.0415-4.5649-.4258-1.25338-1.5846-1.98838-2.8695-2.02929-1.8556-.05901-2.9575 1.43244-3.2109 3.1063-.053.34873-.1 2.11111.012 2.62815zm4.4945-7.913284c4.0727.887894 5.2965 5.514494 4.1954 9.157954-.5734 1.89984-2.4256 3.80974-4.9874 3.77624-.6807-.0087-1.3801.0376-2.0393-.0972-2.2379-.4581-3.549-1.9314-4.1324-4.07135-.448-1.64234-.4332-3.30011.0952-4.93172.8692-2.68314 3.6623-4.332192 6.4675-3.9076914.1375.0201185.2709.0449314.401.0737674z"/><path d="m21.273 6.61005c.0087-1.54108-.5453-3.08283-1.6524-3.81381-1.2749-.83961-3.6643-.74706-4.5636 1.43379-.6009 1.45926-.6089 2.96681-.118 4.45021.4815 1.45796 1.6879 2.18626 3.1177 2.17076 2.1406-.0221 3.2055-2.13119 3.2163-4.24095zm-1.9039-6.479511c2.4585.60758 4.2745 2.793121 4.3986 5.346831.0697 1.45189.0375 2.85885-.4829 4.22959-.7658 2.01724-2.5249 3.30344-4.6923 3.35914-.7907.0201-1.6075.0275-2.3713-.1408-2.044-.4507-3.276-1.8543-3.8628-3.78099-.5163-1.69733-.515-3.4738.0081-5.16308.6096-1.9676 2.0232-3.312185 4.0297-3.797712.7243-.17570161 1.4801-.1555831 2.2251-.1354645.2254.0067061.452.0120711.6713.0637085.0255.006036.051.012071.0765.018777z"/><path d="m67.3634 27.4078c-1.8455-.3977-3.4717-1.8845-4.1122-3.6348-.6465-1.7671-.6015-3.5603-.0469-5.3535.6431-2.0803 2.6315-3.9285 5.4025-3.9513 2.1708-.0181 4.0532.7598 5.0537 2.6476.3421.6471.4138 1.6712.3139 1.6712h-2.3411c-.0711-.1576-.0792-.2528-.116-.3568-.4306-1.2037-1.3735-1.6544-2.5578-1.7208-1.2534-.0704-2.2466.4419-2.8273 1.5444-.8812 1.6719-.902 3.437-.2012 5.1665.5016 1.2386 2.038 1.9615 3.4067 1.7436 1.3741-.2186 2.2915-1.2051 2.478-2.7489h-2.5698v-1.8013h4.7285c0 2.1279 0 4.2565-.004 6.385-.4111.0054-.8215.0121-1.232.0188-.0751.0013-.1582-.0007-.2119-.0523-.0402-.0396-.0543-.0979-.0664-.1529l-.226-1.0335c-.9274.7411-1.9441 1.4399-3.1103 1.6592-.5928.1113-1.1876.0932-1.7604-.0302z"/><path d="m.0275627 6.00095c.1012633-1.26277.4882093-2.5745 1.1916873-3.55964.98447-1.37611 2.30827-2.172801 4.04584-2.18286.83693-.004024 1.67453-.023471 2.47659.278977 1.82341.686713 2.91382 1.965583 3.21692 3.939883-.4614.25483-.9214.12071-1.35931.14418-.41176.02213-.8262.00469-1.26076.00469-.06438-.20588-.09858-.35006-.15223-.48485-.36817-.92009-1.00123-1.49481-2.02393-1.5954-1.10517-.10931-2.038.15424-2.65095 1.15547-.70549 1.15212-.83626 2.43233-.72427 3.73199.05097.59349.22332 1.19973.4634 1.74696.50296 1.15075 1.44921 1.69935 2.61943 1.63095 1.03343-.0604 1.91529-.7954 2.29754-1.92334.05834-.17235.08047-.35744.13547-.60758h1.16754 1.42907c-.3816 2.23982-1.4237 3.87012-3.5623 4.51062-2.14933.6431-4.14979.2608-5.74787-1.4305-1.003913-1.0629-1.47804-2.73475-1.5725972-4.16652-.02548348-.38427-.02213038-.78597.0107299-1.19303z"/><path d="m16.4294 27.4031c-1.8066-.3454-3.4-1.5478-3.4228-3.5744-.0342-3.0023-.01-6.004-.01-9.056.7289-.2079 1.4391-.0268 2.2117-.1207.0254.3588.0637.6498.0643.9409.0054 2.0534-.0127 4.1075.0121 6.1609.0087.6773.0825 1.3607.2072 2.0273.0577.3112.2649.6257.4788.8731.7397.8544 3.3022.7431 3.8742-.631.2817-.678.4634-1.352.4594-2.0883-.0121-2.0159-.0041-4.0324-.0041-6.0483v-1.1609h2.2842v.7069c0 2.4725.0053 4.9444-.0047 7.417-.0014.3762-.0369.7591-.112 1.1273-.3192 1.5538-1.2561 2.6805-2.771 3.1895-.672.226-1.3808.3319-2.0896.3406-.3937.0047-.7907-.0301-1.1777-.1039z"/><path d="m26.6979 18.4755v8.4733h-2.2311v-12.2174h2.893c1.6947 2.7449 3.4048 5.5159 5.2087 8.4378.1174-1.0321.0517-1.9133.0631-2.7898.0107-.9503.0027-1.9005.0027-2.8508v-2.8126c.7544-.069 1.4565-.0449 2.2224-.0188v12.2496h-2.9635c-1.6457-2.6839-3.345-5.4555-5.1953-8.4713z"/><path d="m53.6635 18.8639v8.0246c-.7276.2407-1.4418.0697-2.1386.11-.22-.8866-.2964-8.8696-.1187-12.2435.8429-.173 1.7047-.0429 2.6368-.0731 1.4989 2.777 2.9991 5.5581 4.6199 8.5631v-8.5047h2.6899v12.2119h-2.7321c-1.5652-2.667-3.1727-5.4045-4.7795-8.1413-.059.0174-.1187.0356-.1777.053z"/><path d="m7.98027 19.2365v-4.5025h2.67313v12.2206h-2.68453v-5.381h-4.47168c-.20722.857-.06773 1.7617-.09254 2.655-.02414.8731-.00537 1.7476-.00537 2.6771-.8718.2199-1.73623.0335-2.577852.1147-.21795-.9242-.291718-9.0225-.12004-12.2475.415112-.1838.872472-.0758 1.313072-.0939.41511-.0175.83022-.004 1.34257-.004v4.5568c1.55919.0208 3.02114.0114 4.62324.0047z"/><path d="m39.4693 27.0023v-10.0291h-3.5865v-2.2513h9.4436c.2153.6659.0503 1.3802.0906 2.1433-1.0207.2233-2.0467-.006-3.1191.1455-.1482 1.0744-.0503 2.1681-.0677 3.2559-.0168 1.1038-.004 2.207-.004 3.3115v3.4034c-.9054.0536-1.7617.0168-2.7569.0208z"/><path d="m38.6338.546265h2.6456v9.982835h5.4508v2.2586h-8.0964z"/><path d="m46.8574 14.7079h2.1601v12.2656c-.6928.0644-1.3942.0389-2.1601.0134z"/></g></svg>

<svg width="75" height="28" viewBox="0 0 75 28" fill="none" xmlns="http://www.w3.org/2000/svg">
<path fill-rule="evenodd" clip-rule="evenodd" d="M27.6678 8.05339C28.0212 9.68635 29.1874 10.8472 30.9029 10.8438C32.2844 10.8405 33.2286 10.1632 33.6947 8.91313C34.2533 7.41497 34.2486 5.85913 33.7362 4.34823C33.3104 3.09485 32.1516 2.35985 30.8667 2.31894C29.0111 2.25993 27.9092 3.75138 27.6558 5.42524C27.6028 5.77397 27.5558 7.53635 27.6678 8.05339ZM32.1623 0.140106C36.235 1.028 37.4588 5.6546 36.3577 9.29806C35.7843 11.1979 33.9321 13.1078 31.3703 13.0743C30.6896 13.0656 29.9902 13.1119 29.331 12.9771C27.0931 12.519 25.782 11.0457 25.1986 8.90575C24.7506 7.26341 24.7654 5.60564 25.2938 3.97403C26.163 1.29089 28.9561 -0.358162 31.7613 0.0663386C31.8988 0.0864571 32.0322 0.11127 32.1623 0.140106Z" fill="#122842"/>
<path fill-rule="evenodd" clip-rule="evenodd" d="M21.273 6.61005C21.2817 5.06897 20.7277 3.52722 19.6206 2.79624C18.3457 1.95663 15.9563 2.04918 15.057 4.23003C14.4561 5.68929 14.4481 7.19684 14.939 8.68024C15.4205 10.1382 16.6269 10.8665 18.0567 10.851C20.1973 10.8289 21.2622 8.71981 21.273 6.61005ZM19.3691 0.130539C21.8276 0.738119 23.6436 2.92366 23.7677 5.47737C23.8374 6.92926 23.8052 8.33622 23.2848 9.70696C22.519 11.7242 20.7599 13.0104 18.5925 13.0661C17.8018 13.0862 16.985 13.0936 16.2212 12.9253C14.1772 12.4746 12.9452 11.071 12.3584 9.14431C11.8421 7.44698 11.8434 5.67051 12.3665 3.98123C12.9761 2.01363 14.3897 0.669045 16.3962 0.183518C17.1205 0.00781639 17.8763 0.0279349 18.6213 0.0480535C18.8467 0.0547596 19.0733 0.0601246 19.2926 0.111762C19.3181 0.117798 19.3436 0.123833 19.3691 0.130539Z" fill="#122842"/>
<path fill-rule="evenodd" clip-rule="evenodd" d="M67.3634 27.4078C65.5179 27.0101 63.8917 25.5233 63.2512 23.773C62.6047 22.0059 62.6497 20.2127 63.2043 18.4195C63.8474 16.3392 65.8358 14.491 68.6068 14.4682C70.7776 14.4501 72.66 15.228 73.6605 17.1158C74.0026 17.7629 74.0743 18.787 73.9744 18.787H71.6333C71.5622 18.6294 71.5541 18.5342 71.5173 18.4302C71.0867 17.2265 70.1438 16.7758 68.9595 16.7094C67.7061 16.639 66.7129 17.1513 66.1322 18.2538C65.251 19.9257 65.2302 21.6908 65.931 23.4203C66.4326 24.6589 67.969 25.3818 69.3377 25.1639C70.7118 24.9453 71.6292 23.9588 71.8157 22.415H69.2459V20.6137H73.9744C73.9744 22.7416 73.9744 24.8702 73.9704 26.9987C73.5593 27.0041 73.1489 27.0108 72.7384 27.0175C72.6633 27.0188 72.5802 27.0168 72.5265 26.9652C72.4863 26.9256 72.4722 26.8673 72.4601 26.8123L72.2341 25.7788C71.3067 26.5199 70.29 27.2187 69.1238 27.438C68.531 27.5493 67.9362 27.5312 67.3634 27.4078Z" fill="#122842"/>
<path fill-rule="evenodd" clip-rule="evenodd" d="M0.0275627 6.00095C0.128826 4.73818 0.515772 3.42645 1.21925 2.44131C2.20372 1.0652 3.52752 0.268509 5.26509 0.25845C6.10202 0.254426 6.93962 0.234979 7.74168 0.537427C9.56509 1.22414 10.6555 2.50301 10.9586 4.47731C10.4972 4.73214 10.0372 4.59802 9.59929 4.62149C9.18753 4.64362 8.77309 4.62618 8.33853 4.62618C8.27415 4.4203 8.23995 4.27612 8.1863 4.14133C7.81813 3.22124 7.18507 2.64652 6.16237 2.54593C5.0572 2.43662 4.12437 2.70017 3.51142 3.7014C2.80593 4.85352 2.67516 6.13373 2.78715 7.43339C2.83812 8.02688 3.01047 8.63312 3.25055 9.18035C3.75351 10.3311 4.69976 10.8797 5.86998 10.8113C6.90341 10.7509 7.78527 10.0159 8.16752 8.88796C8.22586 8.71561 8.24799 8.53052 8.30299 8.28038H9.47053H10.8996C10.518 10.5202 9.4759 12.1505 7.3373 12.791C5.18797 13.4341 3.18751 13.0518 1.58943 11.3605C0.585517 10.2976 0.11139 8.62575 0.0168328 7.19398C-0.00865068 6.80971 -0.00529758 6.40801 0.0275627 6.00095Z" fill="#122842"/>
<path fill-rule="evenodd" clip-rule="evenodd" d="M16.4294 27.4031C14.6228 27.0577 13.0294 25.8553 13.0066 23.8287C12.9724 20.8264 12.9966 17.8247 12.9966 14.7727C13.7255 14.5648 14.4357 14.7459 15.2083 14.652C15.2337 15.0108 15.272 15.3018 15.2726 15.5929C15.278 17.6463 15.2599 19.7004 15.2847 21.7538C15.2934 22.4311 15.3672 23.1145 15.4919 23.7811C15.5496 24.0923 15.7568 24.4068 15.9707 24.6542C16.7104 25.5086 19.2729 25.3973 19.8449 24.0232C20.1266 23.3452 20.3083 22.6712 20.3043 21.9349C20.2922 19.919 20.3002 17.9025 20.3002 15.8866V14.7257H22.5844V15.4326C22.5844 17.9051 22.5897 20.377 22.5797 22.8496C22.5783 23.2258 22.5428 23.6087 22.4677 23.9769C22.1485 25.5307 21.2116 26.6574 19.6967 27.1664C19.0247 27.3924 18.3159 27.4983 17.6071 27.507C17.2134 27.5117 16.8164 27.4769 16.4294 27.4031Z" fill="#122842"/>
<path fill-rule="evenodd" clip-rule="evenodd" d="M26.6979 18.4755V26.9488H24.4668V14.7314H27.3598C29.0545 17.4763 30.7646 20.2473 32.5685 23.1692C32.6859 22.1371 32.6202 21.2559 32.6316 20.3794C32.6423 19.4291 32.6343 18.4789 32.6343 17.5286V14.716C33.3887 14.647 34.0908 14.6711 34.8567 14.6972V26.9468H31.8932C30.2475 24.2629 28.5482 21.4913 26.6979 18.4755Z" fill="#122842"/>
<path fill-rule="evenodd" clip-rule="evenodd" d="M53.6635 18.8639V26.8885C52.9359 27.1292 52.2217 26.9582 51.5249 26.9985C51.3049 26.1119 51.2285 18.1289 51.4062 14.755C52.2491 14.582 53.1109 14.7121 54.043 14.6819C55.5419 17.4589 57.0421 20.24 58.6629 23.245V14.7403H61.3528V26.9522H58.6207C57.0555 24.2852 55.448 21.5477 53.8412 18.8109C53.7822 18.8283 53.7225 18.8465 53.6635 18.8639Z" fill="#122842"/>
<path fill-rule="evenodd" clip-rule="evenodd" d="M7.98027 19.2365V14.734H10.6534V26.9546H7.96887V21.5736H3.49719C3.28997 22.4306 3.42946 23.3353 3.40465 24.2286C3.38051 25.1017 3.39928 25.9762 3.39928 26.9057C2.52748 27.1256 1.66305 26.9392 0.821428 27.0204C0.603478 26.0962 0.52971 17.9979 0.701388 14.7729C1.1165 14.5891 1.57386 14.6971 2.01446 14.679C2.42957 14.6615 2.84468 14.675 3.35703 14.675V19.2318C4.91622 19.2526 6.37817 19.2432 7.98027 19.2365Z" fill="#122842"/>
<path fill-rule="evenodd" clip-rule="evenodd" d="M39.4693 27.0023V16.9732H35.8828V14.7219H45.3264C45.5417 15.3878 45.3767 16.1021 45.417 16.8652C44.3963 17.0885 43.3703 16.8592 42.2979 17.0107C42.1497 18.0851 42.2476 19.1788 42.2302 20.2666C42.2134 21.3704 42.2262 22.4736 42.2262 23.5781V26.9815C41.3208 27.0351 40.4645 26.9983 39.4693 27.0023Z" fill="#122842"/>
<path fill-rule="evenodd" clip-rule="evenodd" d="M38.6338 0.546265H41.2794V10.5291H46.7302V12.7877H38.6338V0.546265Z" fill="#122842"/>
<path fill-rule="evenodd" clip-rule="evenodd" d="M46.8574 14.7079H49.0175V26.9735C48.3247 27.0379 47.6233 27.0124 46.8574 26.9869V14.7079Z" fill="#122842"/>
</svg>
